static/assets/images/protocols/layerbank-mono.svg

<svg width="301" height="219" viewBox="0 0 301 219" fill="none" xmlns="http://www.w3.org/2000/svg">
<path d="M155.194 175.949H53.6124V0H0V219H155.194V175.949Z" fill="black"/>
<path d="M289.4 125.566C281.655 115.677 271.434 109.406 258.674 106.692C269.961 103.354 278.99 97.4268 285.794 88.9101C292.597 80.3935 295.984 69.6618 295.984 56.7778C295.984 39.3077 289.65 25.4876 277.015 15.2863C264.38 5.08503 246.854 0 224.5 0H96.5101V42.7393H214.154C222.933 42.7393 229.673 44.7047 234.376 48.6667C239.079 52.6286 241.431 58.3375 241.431 65.8247C241.431 73.3118 239.079 78.9896 234.376 82.8268C229.673 86.664 222.933 88.5982 214.154 88.5982H96.5101V127.594H217.916C226.914 127.594 233.968 129.778 239.079 134.145C244.189 138.513 246.761 144.534 246.761 152.239C246.761 159.945 244.314 165.809 239.392 169.865C234.47 173.92 227.541 175.949 218.544 175.949H198.091V219H227.949C250.93 219 268.863 213.634 281.718 202.933C294.572 192.234 301 177.727 301 159.415C301 146.718 297.143 135.456 289.4 125.566Z" fill="black"/>
</svg>

<svg xmlns="http://www.w3.org/2000/svg" fill="none" viewBox="0 0 301 219"><path fill="#000" d="M155.194 175.949H53.612V0H0v219h155.194z"/><path fill="#000" d="M289.4 125.566c-7.745-9.889-17.966-16.16-30.726-18.874 11.287-3.338 20.316-9.265 27.12-17.782 6.803-8.516 10.19-19.248 10.19-32.132 0-17.47-6.334-31.29-18.969-41.492S246.854 0 224.5 0H96.51v42.74h117.644c8.779 0 15.519 1.965 20.222 5.927s7.055 9.67 7.055 17.158c0 7.487-2.352 13.165-7.055 17.002s-11.443 5.771-20.222 5.771H96.51v38.996h121.406q13.497 0 21.163 6.551c5.11 4.368 7.682 10.389 7.682 18.094s-2.447 13.57-7.369 17.626c-4.922 4.055-11.851 6.084-20.848 6.084h-20.453V219h29.858c22.981 0 40.914-5.366 53.769-16.067q19.281-16.05 19.282-43.518c0-12.697-3.857-23.959-11.6-33.849"/></svg>
